X:379
T:King George IV's Welcome
R:Strathspey
B:The Athole Collection
M:C
L:1/8
K:A Minor
B,|A,A,A,>B, C>DE>A|A,A,A,>C CG,G,>B,|A,A,A,>B, C>DE>C|
B,>DG>E D/C/B,/A,/ G,:|
B|^c>eA>e c>e d/c/B/A/|^c>eA>e d/c/B/A/ G>B|^c>eA>e c<e e>^f|
gg a/g/^f/e/ d/c/B/A/ G>B|^c>eA>e c>e d/c/B/A/|^ceA>e d/c/B/A/ G>B|
^c>eB>c A>B ^F>A|G>ED>C B,>A,G,>B,||

